packages/elvis-assets-icons/icons/svg/src/phone_image.svg

<svg width="24" height="24" viewBox="0 0 24 24" fill="none" xmlns="http://www.w3.org/2000/svg">
<path d="M4.983 23.9983C3.063 23.9983 1.501 22.4373 1.5 20.5183V4.98128C1.5 3.06028 3.062 1.49828 4.983 1.49828H6.75C7.164 1.49828 7.5 1.83428 7.5 2.24828C7.5 2.66228 7.164 2.99828 6.75 2.99828H4.983C3.89 2.99828 3 3.88828 3 4.98128V17.9983H13.5V15.7483C13.5 15.3343 13.836 14.9983 14.25 14.9983C14.664 14.9983 15 15.3343 15 15.7483V20.5163C15 22.4363 13.438 23.9983 11.518 23.9983H4.983ZM3 20.5163C3 21.6093 3.89 22.4983 4.982 22.4983H11.517C12.61 22.4983 13.5 21.6093 13.5 20.5163V19.4983H3V20.5163Z" fill="black"/>
<path d="M13.875 5.25C13.255 5.25 12.75 4.745 12.75 4.125C12.75 3.528 13.218 3.036 13.816 3.004C13.817 3.004 13.863 3 13.875 3C14.495 3 15 3.505 15 4.125C15 4.745 14.495 5.25 13.875 5.25Z" fill="black"/>
<path d="M11.25 13.5C10.009 13.5 9 12.49 9 11.25V2.25C9 1.009 10.009 0 11.25 0H20.25C21.491 0 22.5 1.009 22.5 2.25V11.25C22.5 12.491 21.491 13.5 20.25 13.5H11.25ZM20.25 12C20.664 12 21 11.664 21 11.25V10.727L18.735 7.33L16.734 10.181C16.616 10.35 16.431 10.463 16.226 10.493C16.19 10.498 16.155 10.5 16.121 10.5C15.951 10.5 15.784 10.442 15.652 10.336L14.416 9.347L14.414 9.348L12.65 12H20.25ZM11.25 1.5C10.836 1.5 10.5 1.836 10.5 2.25V11.25C10.5 11.536 10.661 11.788 10.906 11.914L13.167 8.516C13.19 8.481 13.215 8.448 13.241 8.414C13.492 8.099 13.85 7.901 14.248 7.857C14.304 7.851 14.362 7.847 14.418 7.847C14.755 7.847 15.087 7.963 15.352 8.175L15.965 8.665L17.507 6.469C17.613 6.317 17.747 6.186 17.904 6.081C18.152 5.916 18.438 5.829 18.733 5.829C18.832 5.829 18.933 5.839 19.031 5.859C19.424 5.938 19.762 6.165 19.984 6.498L21 8.023V2.25C21 1.836 20.664 1.5 20.25 1.5H11.25Z" fill="black"/>
</svg>

<svg width="24" height="24" fill="none" xmlns="http://www.w3.org/2000/svg"><path d="M4.983 23.998a3.486 3.486 0 01-3.483-3.48V4.981a3.486 3.486 0 013.483-3.483H6.75a.75.75 0 010 1.5H4.983C3.89 2.998 3 3.888 3 4.981v13.017h10.5v-2.25a.75.75 0 011.5 0v4.768a3.486 3.486 0 01-3.482 3.482H4.983zM3 20.516c0 1.093.89 1.982 1.982 1.982h6.535a1.985 1.985 0 001.983-1.982v-1.018H3v1.018zM13.875 5.25a1.124 1.124 0 01-.059-2.246L13.875 3C14.495 3 15 3.505 15 4.125s-.505 1.125-1.125 1.125z" fill="#000"/><path d="M11.25 13.5A2.253 2.253 0 019 11.25v-9A2.252 2.252 0 0111.25 0h9a2.252 2.252 0 012.25 2.25v9a2.252 2.252 0 01-2.25 2.25h-9zm9-1.5a.75.75 0 00.75-.75v-.523L18.735 7.33l-2.001 2.851a.753.753 0 01-.613.319.752.752 0 01-.469-.164l-1.236-.989-.002.001L12.65 12h7.6zm-9-10.5a.75.75 0 00-.75.75v9c0 .286.161.538.406.664l2.261-3.398a1.49 1.49 0 011.251-.669c.337 0 .669.116.934.328l.613.49 1.542-2.196a1.496 1.496 0 011.524-.61c.393.079.731.306.953.639L21 8.023V2.25a.75.75 0 00-.75-.75h-9z" fill="#000"/></svg>
